X: 16884
T: Haud Awa' Hame
R: jig
M: 6/8
K: Dmajor
A|:"Bm"FBAB2A|BdB AFD|FBAB2A|FED BBA|
"G"FBAB2|BdB AFD|DED EFA|FEDB2A:|
"D"FED DED|FED EFA|"G"FED DEF|FEFB2A|
"D"FED DED|FED EFA|"G"FBd BAF|"A"FEDB2A:|

